apps/32/skrooge-black.svg

<?xml version="1.0" encoding="UTF-8" standalone="no"?>
<!-- Created with Inkscape (http://www.inkscape.org/) -->

<svg
   width="32"
   height="32"
   version="1.1"
   viewBox="0 0 32 32"
   id="svg22"
   xmlns:xlink="http://www.w3.org/1999/xlink"
   xmlns="http://www.w3.org/2000/svg"
   xmlns:svg="http://www.w3.org/2000/svg">
  <defs
     id="defs12">
    <linearGradient
       id="linearGradient1005-3-3"
       x1="5.2535"
       x2="9.3823996"
       y1="15.383"
       y2="2.9421"
       gradientTransform="matrix(0.99999,0,0,0.99999,1.632,-0.61743)"
       gradientUnits="userSpaceOnUse">
      <stop
         stop-color="#fa8200"
         offset="0"
         id="stop2" />
      <stop
         stop-color="#ff9600"
         offset=".36953"
         id="stop4" />
      <stop
         stop-color="#ffb400"
         offset="1"
         id="stop6" />
    </linearGradient>
    <filter
       id="filter4014"
       x="-0.062499933"
       y="-0.057692993"
       width="1.1249999"
       height="1.115386"
       color-interpolation-filters="sRGB">
      <feGaussianBlur
         stdDeviation="1.093751"
         id="feGaussianBlur9" />
    </filter>
    <linearGradient
       xlink:href="#linearGradient3487"
       id="linearGradient3403"
       gradientUnits="userSpaceOnUse"
       x1="6.9491749"
       y1="4.5549412"
       x2="11.215498"
       y2="59.052471" />
    <linearGradient
       id="linearGradient3487">
      <stop
         style="stop-color:#32373c;stop-opacity:1"
         offset="0"
         id="stop3481" />
      <stop
         id="stop3483"
         offset="0.36804965"
         style="stop-color:#1a1a1a;stop-opacity:1" />
      <stop
         style="stop-color:#31363b;stop-opacity:1"
         offset="1"
         id="stop3485" />
    </linearGradient>
    <linearGradient
       xlink:href="#linearGradient20604"
       id="linearGradient20558"
       gradientUnits="userSpaceOnUse"
       x1="25.802212"
       y1="20.373846"
       x2="25.111048"
       y2="58.912758" />
    <linearGradient
       id="linearGradient20604">
      <stop
         id="stop20598"
         offset="0"
         style="stop-color:#3d3d3d;stop-opacity:1" />
      <stop
         style="stop-color:#000000;stop-opacity:1"
         offset="0.61772454"
         id="stop20600" />
      <stop
         id="stop20602"
         offset="1"
         style="stop-color:#3d3d3d;stop-opacity:1" />
    </linearGradient>
    <filter
       style="color-interpolation-filters:sRGB"
       id="filter20720"
       x="-0.017024755"
       y="-0.016457183"
       width="1.0340491"
       height="1.0329144">
      <feGaussianBlur
         stdDeviation="0.14745661"
         id="feGaussianBlur20722" />
    </filter>
    <linearGradient
       gradientTransform="translate(0.36067797,-0.13016949)"
       xlink:href="#linearGradient4555"
       id="linearGradient4557"
       x1="43.499737"
       y1="64.011795"
       x2="44.141731"
       y2="0.30621234"
       gradientUnits="userSpaceOnUse" />
    <linearGradient
       id="linearGradient4555">
      <stop
         style="stop-color:#141618;stop-opacity:1"
         offset="0"
         id="stop4551" />
      <stop
         id="stop4559"
         offset="0.51820582"
         style="stop-color:#686868;stop-opacity:1" />
      <stop
         style="stop-color:#31363b;stop-opacity:1"
         offset="1"
         id="stop4553" />
    </linearGradient>
    <filter
       style="color-interpolation-filters:sRGB"
       id="filter4601"
       x="-0.030244955"
       width="1.0604899"
       y="-0.030100647"
       height="1.0602013">
      <feGaussianBlur
         stdDeviation="0.014790289"
         id="feGaussianBlur4603" />
    </filter>
    <linearGradient
       y2="549.79999"
       x2="0"
       y1="523.79999"
       gradientTransform="matrix(0.70711,-0.70711,0.70711,0.70711,-635.28,-57.48)"
       gradientUnits="userSpaceOnUse"
       id="linearGradient5783"
       xlink:href="#c" />
    <linearGradient
       id="c"
       y1="523.79999"
       y2="549.79999"
       x2="0"
       gradientUnits="userSpaceOnUse"
       gradientTransform="matrix(0.70711,-0.70711,0.70711,0.70711,-635.28,-57.48)">
      <stop
         id="stop5720" />
      <stop
         offset="1"
         stop-opacity="0"
         id="stop5722" />
    </linearGradient>
    <linearGradient
       xlink:href="#a"
       id="f"
       x1="391.57001"
       x2="461.20001"
       gradientUnits="userSpaceOnUse"
       gradientTransform="translate(250.71,-442.32)" />
    <linearGradient
       id="a"
       y1="542.79999"
       y2="503.79999"
       x2="0"
       gradientUnits="userSpaceOnUse">
      <stop
         stop-color="#2a2c2f"
         id="stop5710" />
      <stop
         offset="1"
         stop-color="#424649"
         id="stop5712" />
    </linearGradient>
    <linearGradient
       xlink:href="#c"
       id="d"
       y1="520.94"
       x1="410.88"
       y2="532.63"
       x2="422.57001"
       gradientUnits="userSpaceOnUse"
       gradientTransform="translate(-384.57,-499.8)" />
    <linearGradient
       id="linearGradient907"
       y1="523.79999"
       y2="549.79999"
       x2="0"
       gradientUnits="userSpaceOnUse"
       gradientTransform="matrix(0.70711,-0.70711,0.70711,0.70711,-635.28,-57.48)">
      <stop
         id="stop903" />
      <stop
         offset="1"
         stop-opacity="0"
         id="stop905" />
    </linearGradient>
    <linearGradient
       xlink:href="#a"
       id="e"
       y1="543.79999"
       x1="428.57001"
       y2="503.79999"
       x2="388.57001"
       gradientUnits="userSpaceOnUse" />
    <linearGradient
       id="linearGradient914"
       y1="542.79999"
       y2="503.79999"
       x2="0"
       gradientUnits="userSpaceOnUse">
      <stop
         stop-color="#2a2c2f"
         id="stop910" />
      <stop
         offset="1"
         stop-color="#424649"
         id="stop912" />
    </linearGradient>
    <linearGradient
       id="b"
       y1="42"
       x1="42"
       y2="6"
       x2="6"
       gradientUnits="userSpaceOnUse">
      <stop
         stop-color="#989a9b"
         id="stop5715" />
      <stop
         offset="1"
         stop-color="#f6f6f7"
         id="stop5717" />
    </linearGradient>
  </defs>
  <g
     id="g886"
     transform="matrix(0.43761427,0,0,0.43761427,2.2490199,1.6968237)">
    <rect
       y="0.60077608"
       x="1.033034"
       height="62.866646"
       width="62.567139"
       id="rect4539-1"
       style="opacity:1;fill:#3e4245;fill-opacity:1;stroke:none;stroke-width:1.146;stroke-linejoin:round;stroke-miterlimit:7.8;stroke-dasharray:none;stroke-opacity:0.995146" />
    <g
       transform="matrix(1.33,0,0,1.33,-507.75922,-666.32106)"
       id="g5750">
      <g
         style="stroke-width:0.5;stroke-linejoin:round"
         id="g5734" />
      <g
         style="stroke-width:2;stroke-linejoin:bevel"
         id="g5740">
        <path
           style="opacity:0.2;fill:url(#linearGradient5783)"
           d="m 36.729,11.271 -25.457,25.457 6.127,6.127 a 20.00001,20.00001 0 0 0 6.601562,1.144531 20.00001,20.00001 0 0 0 20,-20 20.00001,20.00001 0 0 0 -1.144531,-6.601562 z"
           transform="translate(384.57,499.8)"
           id="path5736" />
        <circle
           style="fill:url(#f);stroke-linecap:round"
           cx="659.28003"
           cy="81.480003"
           r="17"
           transform="rotate(45)"
           id="circle5738" />
      </g>
      <g
         style="fill-rule:evenodd"
         id="g5746">
        <path
           style="opacity:0.2;fill:url(#d)"
           d="m 26.06,12.789 -0.307,1.682 1.9,3.248 4.281,0.563 1.438,2.5 -4.094,7.938 -4.75,6.156 -2.283,-1.232 -0.248,1.357 11,11 12.563,-15.977 -12.5,-12.5 -2,0.266 z"
           transform="translate(384.57,499.8)"
           id="path5742" />
        <path
           style="fill:url(#e)"
           d="m 407.6,534.24 -7.625,-11.06 -0.406,-5.25 5.344,-0.625 3.75,-5.03 4.188,5.656 4.844,0.656 -2.281,7.906 -6.094,7.719 z"
           id="path5744" />
      </g>
      <path
         style="fill:url(#b);stroke-width:0.5;stroke-linejoin:round"
         d="M 24,6 A 17.999973,17.999973 0 0 0 6,24 17.999973,17.999973 0 0 0 24,42 17.999973,17.999973 0 0 0 42,24 17.999973,17.999973 0 0 0 24,6 m 0,2 A 15.999989,15.999989 0 0 1 39.705078,21 H 36 c -0.554,0 -1,0.446 -1,1 0,0.554 0.446,1 1,1 h 3.963 A 15.999989,15.999989 0 0 1 40,24 15.999989,15.999989 0 0 1 39.949219,25 H 36 c -0.554,0 -1,0.446 -1,1 0,0.554 0.446,1 1,1 h 3.709 A 15.999989,15.999989 0 0 1 24,40 15.999989,15.999989 0 0 1 8.294922,27 H 12 c 0.554,0 1,-0.446 1,-1 0,-0.554 -0.446,-1 -1,-1 H 8.04 A 15.999989,15.999989 0 0 1 8,24 15.999989,15.999989 0 0 1 8.05078,23 H 12 c 0.554,0 1,-0.446 1,-1 0,-0.554 -0.446,-1 -1,-1 H 8.291 A 15.999989,15.999989 0 0 1 24,8 m 0,4 c -0.667,0 -1.291,0.188 -1.77,0.537 -0.47,0.349 -0.772,0.811 -1,1.266 -0.454,0.909 -0.684,1.869 -1.12,2.75 -0.165,0.321 -0.217,0.317 -0.325,0.349 -0.108,0.033 -0.371,0.04 -0.765,-0.017 -0.8,-0.114 -2.109,-0.458 -3.467,0.225 -0.769,0.38 -1.274,1.107 -1.483,1.872 -0.216,0.765 -0.198,1.584 -0.06,2.432 0.286,1.696 1.09,3.534 2.16,5.141 0.96,1.436 2.214,3.695 3.498,5.625 0.642,0.96 1.288,1.84 1.959,2.533 C 22.298,35.402 23,36 24,36 c 1,0 1.7,-0.598 2.371,-1.287 0.669,-0.693 1.319,-1.573 1.961,-2.533 1.284,-1.93 2.543,-4.189 3.5,-5.625 1.071,-1.607 1.872,-3.445 2.154,-5.141 C 34.13,20.566 34.14,19.747 33.932,18.982 33.719,18.217 33.22,17.49 32.447,17.11 31.09,16.427 29.778,16.771 28.982,16.885 28.585,16.942 28.321,16.935 28.21,16.902 28.11,16.87 28.06,16.874 27.895,16.553 27.454,15.672 27.22,14.712 26.77,13.803 26.542,13.348 26.24,12.886 25.764,12.537 25.29,12.188 24.667,12 24,12 m 0,10 c 0.554,0 1,0.446 1,1 v 6 c 0,0.554 -0.446,1 -1,1 -0.554,0 -1,-0.446 -1,-1 v -6 c 0,-0.554 0.446,-1 1,-1"
         transform="translate(384.57,499.8)"
         id="path5748" />
    </g>
  </g>
  <path
     style="display:inline;mix-blend-mode:normal;fill:url(#linearGradient3403);fill-opacity:1;stroke:url(#linearGradient20558);stroke-width:1.16242;stroke-linecap:butt;stroke-linejoin:round;stroke-miterlimit:4;stroke-dasharray:none;stroke-opacity:1;filter:url(#filter20720)"
     d="M 4.7043071,3.9814882 4.6913695,60.80196 H 58.59546 l 1.022155,-2.866369 c 0,0 -23.87537,0.766388 -32.844441,-4.140386 C 16.257548,48.042344 11.401114,4.0978197 11.401114,4.0978197 Z"
     id="path1686"
     transform="matrix(0.5,0,0,0.5,0.06630362,0.01654936)" />
  <rect
     style="display:inline;fill:none;fill-opacity:1;stroke:url(#linearGradient4557);stroke-width:3.71366;stroke-linejoin:round;stroke-miterlimit:7.8;stroke-dasharray:none;stroke-opacity:0.995146;filter:url(#filter4601)"
     id="rect4539"
     width="62.566689"
     height="62.866646"
     x="1.0323594"
     y="0.59551275"
     ry="6.2447233"
     rx="5.8029528"
     transform="matrix(0.46839137,0,0,0.46743669,0.90638486,1.0268972)" />
</svg>

<svg width="32" height="32" version="1.1" viewBox="0 0 32 32" xmlns="http://www.w3.org/2000/svg" xmlns:xlink="http://www.w3.org/1999/xlink">
<defs>
<linearGradient id="linearGradient3403" x1="6.9492" x2="11.215" y1="4.5549" y2="59.052" gradientUnits="userSpaceOnUse">
<stop style="stop-color:#32373c" offset="0"/>
<stop style="stop-color:#1a1a1a" offset=".36805"/>
<stop style="stop-color:#31363b" offset="1"/>
</linearGradient>
<linearGradient id="linearGradient20558" x1="25.802" x2="25.111" y1="20.374" y2="58.913" gradientUnits="userSpaceOnUse">
<stop style="stop-color:#3d3d3d" offset="0"/>
<stop offset=".61772"/>
<stop style="stop-color:#3d3d3d" offset="1"/>
</linearGradient>
<linearGradient id="linearGradient4557" x1="43.5" x2="44.142" y1="64.012" y2=".30621" gradientTransform="translate(.36068 -.13017)" gradientUnits="userSpaceOnUse">
<stop style="stop-color:#141618" offset="0"/>
<stop style="stop-color:#686868" offset=".51821"/>
<stop style="stop-color:#31363b" offset="1"/>
</linearGradient>
<linearGradient id="linearGradient5783" x2="0" y1="523.8" y2="549.8" gradientTransform="matrix(.70711 -.70711 .70711 .70711 -635.28 -57.48)" gradientUnits="userSpaceOnUse" xlink:href="#c"/>
<linearGradient id="c" x2="0" y1="523.8" y2="549.8" gradientTransform="matrix(.70711 -.70711 .70711 .70711 -635.28 -57.48)" gradientUnits="userSpaceOnUse">
<stop offset="0"/>
<stop stop-opacity="0" offset="1"/>
</linearGradient>
<linearGradient id="f" x1="391.57" x2="461.2" gradientTransform="translate(250.71,-442.32)" gradientUnits="userSpaceOnUse" xlink:href="#a"/>
<linearGradient id="a" x2="0" y1="542.8" y2="503.8" gradientUnits="userSpaceOnUse">
<stop stop-color="#2a2c2f" offset="0"/>
<stop stop-color="#424649" offset="1"/>
</linearGradient>
<linearGradient id="d" x1="410.88" x2="422.57" y1="520.94" y2="532.63" gradientTransform="translate(-384.57,-499.8)" gradientUnits="userSpaceOnUse" xlink:href="#c"/>
<linearGradient id="e" x1="428.57" x2="388.57" y1="543.8" y2="503.8" gradientUnits="userSpaceOnUse" xlink:href="#a"/>
<linearGradient id="b" x1="42" x2="6" y1="42" y2="6" gradientUnits="userSpaceOnUse">
<stop stop-color="#989a9b" offset="0"/>
<stop stop-color="#f6f6f7" offset="1"/>
</linearGradient>
</defs>
<g transform="matrix(.43761 0 0 .43761 2.249 1.6968)">
<rect x="1.033" y=".60078" width="62.567" height="62.867" style="fill:#3e4245"/>
<g transform="matrix(1.33 0 0 1.33 -507.76 -666.32)">
<g style="stroke-linejoin:bevel;stroke-width:2">
<path transform="translate(384.57,499.8)" d="m36.729 11.271-25.457 25.457 6.127 6.127a20 20 0 0 0 6.6016 1.1445 20 20 0 0 0 20-20 20 20 0 0 0-1.1445-6.6016z" style="fill:url(#linearGradient5783);opacity:.2"/>
<circle transform="rotate(45)" cx="659.28" cy="81.48" r="17" style="fill:url(#f);stroke-linecap:round"/>
</g>
<g style="fill-rule:evenodd">
<path transform="translate(384.57,499.8)" d="m26.06 12.789-0.307 1.682 1.9 3.248 4.281 0.563 1.438 2.5-4.094 7.938-4.75 6.156-2.283-1.232-0.248 1.357 11 11 12.563-15.977-12.5-12.5-2 0.266z" style="fill:url(#d);opacity:.2"/>
<path d="m407.6 534.24-7.625-11.06-0.406-5.25 5.344-0.625 3.75-5.03 4.188 5.656 4.844 0.656-2.281 7.906-6.094 7.719z" style="fill:url(#e)"/>
</g>
<path transform="translate(384.57,499.8)" d="m24 6a18 18 0 0 0-18 18 18 18 0 0 0 18 18 18 18 0 0 0 18-18 18 18 0 0 0-18-18m0 2a16 16 0 0 1 15.705 13h-3.7051c-0.554 0-1 0.446-1 1s0.446 1 1 1h3.963a16 16 0 0 1 0.037 1 16 16 0 0 1-0.050781 1h-3.9492c-0.554 0-1 0.446-1 1s0.446 1 1 1h3.709a16 16 0 0 1-15.709 13 16 16 0 0 1-15.705-13h3.7051c0.554 0 1-0.446 1-1s-0.446-1-1-1h-3.96a16 16 0 0 1-0.04-1 16 16 0 0 1 0.05078-1h3.9492c0.554 0 1-0.446 1-1s-0.446-1-1-1h-3.709a16 16 0 0 1 15.709-13m0 4c-0.667 0-1.291 0.188-1.77 0.537-0.47 0.349-0.772 0.811-1 1.266-0.454 0.909-0.684 1.869-1.12 2.75-0.165 0.321-0.217 0.317-0.325 0.349-0.108 0.033-0.371 0.04-0.765-0.017-0.8-0.114-2.109-0.458-3.467 0.225-0.769 0.38-1.274 1.107-1.483 1.872-0.216 0.765-0.198 1.584-0.06 2.432 0.286 1.696 1.09 3.534 2.16 5.141 0.96 1.436 2.214 3.695 3.498 5.625 0.642 0.96 1.288 1.84 1.959 2.533 0.671 0.689 1.373 1.287 2.373 1.287s1.7-0.598 2.371-1.287c0.669-0.693 1.319-1.573 1.961-2.533 1.284-1.93 2.543-4.189 3.5-5.625 1.071-1.607 1.872-3.445 2.154-5.141 0.144-0.848 0.154-1.667-0.054-2.432-0.213-0.765-0.712-1.492-1.485-1.872-1.357-0.683-2.669-0.339-3.465-0.225-0.397 0.057-0.661 0.05-0.772 0.017-0.1-0.032-0.15-0.028-0.315-0.349-0.441-0.881-0.675-1.841-1.125-2.75-0.228-0.455-0.53-0.917-1.006-1.266-0.474-0.349-1.097-0.537-1.764-0.537m0 10c0.554 0 1 0.446 1 1v6c0 0.554-0.446 1-1 1s-1-0.446-1-1v-6c0-0.554 0.446-1 1-1" style="fill:url(#b);stroke-linejoin:round;stroke-width:.5"/>
</g>
</g>
<path transform="matrix(.5 0 0 .5 .066304 .016549)" d="m4.7043 3.9815-0.012938 56.82h53.904l1.0222-2.8664s-23.875 0.76639-32.844-4.1404c-10.516-5.7529-15.372-49.697-15.372-49.697z" style="fill:url(#linearGradient3403);mix-blend-mode:normal;stroke-linejoin:round;stroke-width:1.1624;stroke:url(#linearGradient20558)"/>
<rect transform="matrix(.46839 0 0 .46744 .90638 1.0269)" x="1.0324" y=".59551" width="62.567" height="62.867" rx="5.803" ry="6.2447" style="fill:none;stroke-linejoin:round;stroke-miterlimit:7.8;stroke-opacity:.99515;stroke-width:3.7137;stroke:url(#linearGradient4557)"/>
</svg>
